X:86
T:Cuil Aodha
R:jig
Z:Transcribed by Dave Marshall
M:6/8
K:A
|:age dBe|ABA c2d|edc dBA|GEE dcB
|~A3 ABc|~B3 gab|age dBe| ABA A3:|
|:e2a aga|bef gab|age d2e|dBA GAB|
A2a aga|bef gab|age dBe| ABA A3 :|
